!!!COM: Henri Reber
!!!CNT: Francais
!!!TXO: Francais
!!!OTL: Envoi A***
!!!LYR: Victor Hugo
!!!ENC: Jacob Pegg
!!!ODT: 1847/
!!!YOR: Romantic French Song 1830-1870, David Tunley, ed., New York: Garland Publishing, Inc., 1995, vol. 3
!!NB: Vocal melody and text only encoded.
!!NB: First instance of melodic material only encoded.
**kern	**silbe
*clef G2	*
*k[b-e-a-]	*
*M2/4	*
=1	=1
!! begins on Garland p. 7
{(8.g	{Ro-
16b-)	|
16b-	-ses
16b-	et
(24g	pa-
24cc)	|
24b-	-pil-
=2	=2
4.b-}	-lons}
16r	.
{16b-	{la
=3	=3
(8.b-	tom-
16a-)	-be
(8.a-	nous
16d)	ras-
=4	=4
(4e-	-sem-
4f)	-ble
=5	=5
8.g	To^t
16b-	ou
[4f	tard.
=6	=6
4f]}	|}
4r	.
=7	=7
{(8.g	{Pour-
16b-)	|
8.b-	-quoi
16cc	l'al-
=8	=8
8b-	-ten-
8g	-dre
4b-}	dis?}
=9	=9
16r	.
{16bn	{Veux~
16bn	~tu
16bn	pas
(8cc	vi-
16dd)	-vre
16ee-	en-
=10	=10
(4dd	-sem-
8cc)}	-ble}
8r	.
=11	=11
{8.cc	{Quel-
16dd	-que
4b-}	part?}
=12	=12
2r	.
=13	=13
2r	.
=14	=14
{8.f	{Quel-
16f	-que
8f	part
16f#	dans
16f#	les
=15	=15
[2g	airs,
=16	=16
16g]}	|}
16r	.
{16g	{si
16g	c'est
8g	la\
16g	que
16g	se
=17	=17
(4b-	ber-
8a-)	-ce
16an	Ton
16cc	es-
=18	=18
[2b-	-sor!
=19	=19
4.b-]}	|}
{(16.B-	{Aux
32g)	|
=20	=20
(4g	champs,
4b-)	|
=21	=21
(16g	si
16cc)	|
16b-	c'est
16g	aux
4b-	champs
=22	=22
8a-	que
16cc	ton
16cc	ca-
(16cc	-li-
8ee-)	|
16cc	-ce
=23	=23
(4b-	ver-
8g)	-se
8r	.
=24	=24
8.b-	Son
16f	tre/-
4e-}	-sor!}
=25	=25
2r	.
=26	=26
2r	.
=27	=27
2r	.
=28	=28
!!second verse melody slightly varied from first
({8.g	{Ou\
16b-)	|
8.b-	tu
16b-	vou-
=29	=29
8g	-dras!
(16cc	qu'im-
16b-)	|
8g	-porte!
[8b-	oui,
=30	=30
4b-]	|
16a-	que
16a-	tu
(16a-	sois
16d)	ha-
=31	=31
(4e-	-lei-
4f)	-ne
=32	=32
8.a-	Ou
16b-	cou-
[4f	-leur,
=33	=33
4f]}	|}
4r	.
=34	=34
{16.g	{Pa-
32g	-pil-
([8b-	-lon
16b-]	|
16cc)	|
16b-	ray-
16g	-on-
=35	=35
[4b-	-nant
16b-]}	|}
16r	.
{8b-	{ca-
=36	=36
4bn	-rol-
8cc	-le a\
16dd	de-
16ee-	-mi
=37	=37
(4dd	plei-
8cc)	-ne,
8r	.
=38	=38
8.cc	Ai-
16dd	-le ou
4b-}	fleur!}
=39	=39
2r	.
=40	=40
2r	.
=41	=41
{8.f	{Vi-
16f	-vre en-
8f	-sem-
16f#	-ble,
16f#	d'a-
=42	=42
[2g	-bord!
=43	=43
16g]}	|}
16r	.
{16g	{c'est
16g	le
8g	bien
16g	ne/-
16g	-ces-
=44	=44
(4b-	-sai-
8a-)	-re
16an	Et
16cc	re/-
=45	=45
[2b-	-el!
=46	=46
4.b-]}	|}
{(16.B	{A-
32g)	|
=47	=47
(4g	-pre\s
4b-)	|
=48	=48
(16g	on
16cc)	|
16b-	peut
16g	choi-
8b-	-sir
16.g	au
32g	ha-
=49	=49
4a-	-zard,
(16a-	ou
8ee-)	|
16cc	la
=50	=50
(4b-	ter-
8g)	-re
8r	.
=51	=51
8.b-	Ou
16f	le
4e-}	ciel!}
*-	*-
